X:1
T:Norsk sjømands-sang
T:Norsk sjømandssang (Versjon 3)
T:B. Bjørnson
T:Friedrich August Reissiger
C:Friedrich August Reissiger
%%score [ 1 2 3 4 ]
L:1/8
Q:1/4=60
M:2/4
K:A
V:1 treble-8 nm="T1"
V:2 treble-8 nm="T2"
V:3 treble-8 nm="Baryton"
V:4 bass nm="Bass"
V:1
"^Allegro energico"!f! E | A A A A | A2- A/ G/ A/ B/ | c c c c | c3 e | !>!a2 !>!d2 | %6
w: Den|nor- ske sjø- mand|er _ et gjen- nem-|bar- ket fol- ke-|færd; hvor|far- tøj|
 !>!c3/2 d/ c c | !>!f2 !>!G2 | !>!A3/2 B/ A c | B2 a2 | g3/2 f/ e f | B e !>!^d3/2 f/ | %12
w: fly- de kan, der|er han|før- ste mand, hvor|Far- tøj|fly- de kan der|er han før- ste|
 e2 z!mf! e | !>!f2 B2 | e3/2 d/ c c | .d .c .d .c | !>!B3/2 A/ A A |"^cresc." d d f3/2 e/ | %18
w: mand. På|togt og|hjem- me her, ved|sund og skær og|fis- ke- vær, han|har sin Gud i|
 e2!f! d2 | c c !>!B3/2 d/ | c2 z A |!<(! A (d/f/)!<)! a2- | a f d B | e A !>!B3/2 c/ | A2 z |] %25
w: Sind og|sæt- ter li- vet|ind, han|har sin _ Gud|_ i sind og|sæt- ter li- vet|ind.|
V:2
!f! E | A A A A | A2- A/ G/ A/ B/ | c c c c | c3 e | !>!d2 !>!A2 | !>!^A3/2 A/ A A | !>!B2 !>!G2 | %8
w: Den|nor- ske sjø- mand|er _ et gjen- nem-|bar- ket fol- ke-|færd; hvor|far- tøj|fly- de kan, der|er han|
 !>!A3/2 E/ A A | A F B B | B3 c | B B !>!B3/2 B/ | B2 z!mf! B | !>!B2 G2 | A3/2 E/ E A | %15
w: før- ste mand, hvor|Far- tøj fly- de|kan der|er han før- ste|mand. På|togt og|hjem- me her, ved|
 .B .B .B .B | !>!B3/2 A/ A A |"^cresc." F B d3/2 d/ | c2!f! B2 | A A !>!G3/2 B/ | A2 z =G | %21
w: sund og skær og|fis- ke- vær, han|har sin Gud i|Sind og|sæt- ter li- vet|ind, han|
!<(! F (A/d/)!<)! f2- | f d B B | A A !>!A3/2 G/ | A2 z |] %25
w: har sin _ Gud|_ i sind og|sæt- ter li- vet|ind.|
V:3
!f! E | A A A A | A2- A/ E/ F/ G/ | A A A A | A3 B | !>!A2 !>!A2 | !>!=G3/2 G/ G G | !>!F2 !>!=F2 | %8
w: Den|nor- ske sjø- mand|er _ et gjen- nem-|bar- ket fol- ke-|færd; hvor|far- tøj|fly- de kan, der|er han|
 !>!E3/2 E/ E E | ^D D E F | G3 A | G =G !>!F3/2 A/ | G2 z!mf! G | !>!G2 E2 | E3/2 G/ A E | %15
w: før- ste mand, hvor|Far- tøj fly- de|kan der|er han før- ste|mand. På|togt og|hjem- me her, ved|
 .^E .E .E .E | !>!F3/2 F/ F E |"^cresc." D F G3/2 G/ | A2!f! F2 | E E !>!E3/2 E/ | E2 z E | %21
w: sund og skær og|fis- ke- vær, han|har sin Gud i|Sind og|sæt- ter li- vet|ind, han|
!<(! F (F/A/)!<)! d2- | d A F F | E A !>!F3/2 D/ | C2 z |] %25
w: har sin _ Gud|_ i sind og|sæt- ter li- vet|ind.|
V:4
!f! E, | A, A, A, A, | A,2- A,/ E,/ F,/ G,/ | A, A, A, A, | A,3 G, | !>!F,2 !>!F,2 | %6
w: Den|nor- ske sjø- mand|er _ et gjen- nem-|bar- ket fol- ke-|færd; hvor|far- tøj|
 !>!E,3/2 E,/ E, E, | !>!D,2 !>!D,2 | !>!C,3/2 C,/ C, A,, | B,, B,, C, ^D, | E,3 A,, | %11
w: fly- de kan, der|er han|før- ste mand, hvor|Far- tøj fly- de|kan der|
 B,, B,, !>!B,,3/2 B,,/ | E,2 z!mf! E, | !>!D,2 D,2 | C,3/2 B,,/ A,, A,, | .G,, .C, .G,, .C, | %16
w: er han før- ste|mand. På|togt og|hjem- me her, ved|sund og skær og|
 !>!D,3/2 D,/ D, C, |"^cresc." B,, B,, B,,3/2 B,,/ | A,,2!f! D,2 | E, E, !>!E,3/2 E,/ | A,,2 z C, | %21
w: fis- ke- vær, han|har sin Gud i|Sind og|sæt- ter li- vet|ind, han|
"_\"Nej, denne duer heller ikke\", Maj 1871"!<(! D, D,!<)! D,2- | D, D, D, D, | %23
w: har sin Gud|_ i sind og|
 C, F, !>!D,3/2 E,/ | A,,2 z |] %25
w: sæt- ter li- vet|ind.|

